wp-content/uploads/2023/10/Layer_1.svg

<svg xmlns="http://www.w3.org/2000/svg" width="746" height="107" viewBox="0 0 746 107" fill="none"><g opacity="0.15" clip-path="url(#clip0_106_876)"><path d="M111.083 81.1674C102.518 74.1582 87.6691 67.3981 66.9256 61.0898C65.1659 60.5602 63.3594 60.0306 61.5218 59.5321C50.8619 56.4169 38.785 52.9512 30.7414 45.903L30.3443 45.5058C26.6924 41.8454 24.2864 39.4233 24.2864 30.6695C24.2864 24.5325 25.9605 4.5171 47.576 4.5171C69.0358 4.5171 84.8737 11.7055 93.4 25.3347C98.4896 33.2341 102.917 41.5412 106.637 50.1709L107.151 51.3624H111.044V0H106.489V1.99377C106.559 3.07576 106.341 4.15692 105.857 5.12698C105.372 6.09703 104.639 6.92124 103.733 7.51552C98.5469 10.9501 86.758 9.4314 78.8157 6.05915C67.206 1.05141 55.456 0 47.5682 0C35.0396 0 23.9204 3.83954 14.5298 11.4018C5.13921 18.964 0.381619 29.1664 0.381619 41.7753C0.381619 56.487 5.34167 67.3202 15.5499 74.8903C25.1507 82.0086 34.7982 86.2453 52.3959 91.0505C69.8067 95.8791 81.8992 100.708 88.3699 105.42C94.8405 110.131 97.6748 113.504 97.6748 122.997C97.6748 143.192 84.5856 153.869 59.8243 153.869C29.8616 153.869 4.53965 128.169 4.53965 97.7249V95.7078H0.0234375V158.332H4.38391V156.338C4.38391 152.319 5.54411 149.633 7.91902 148.137C13.4319 144.656 24.7458 147.896 32.7582 151.735C42.3512 156.299 50.6673 158.332 59.8476 158.332C81.5332 158.332 97.8772 153.986 108.397 145.427C119.158 136.821 124.609 125.303 124.609 111.191C124.647 98.4804 120.077 88.3792 111.083 81.1674Z" fill="#FAF9F5"></path><path d="M279.149 103.208C276.19 130.988 254.099 142.857 234.407 144.703C211.273 146.868 183.974 136.198 176.561 111.627C174.022 103.06 172.551 92.5537 172.068 79.4697L283.291 44.6414L281.781 40.0152L281.672 40.0542C279.016 33.5278 274.578 27.0558 267.843 19.8597C256.264 7.39872 237.475 0.015625 217.565 0.015625C193.333 0.015625 171.453 8.4657 155.95 23.816C140.914 38.6991 132.637 59.0649 132.637 81.1753C132.637 102.156 140.797 121.494 155.615 135.622C171.188 150.481 192.43 158.34 216.996 158.34C234.906 158.34 250.736 153.215 262.688 143.542C274.804 133.721 282.077 119.929 283.712 103.652L283.93 101.455H279.328L279.149 103.208ZM171.928 74.3919C171.928 72.6629 171.873 71.0897 171.873 69.5555L172.107 68.4495V68.2003C172.481 60.9885 174.233 42.4996 182.299 26.721C189.829 11.9859 200.341 4.51714 213.547 4.51714C243.253 4.51714 247.699 28.8393 247.932 50.6382L171.928 74.3919Z" fill="#FAF9F5"></path><path d="M407.876 45.1242V155.637H443.235V155.139H443.274V51.1911C443.274 36.2302 439.046 24.0419 430.698 14.961C421.596 5.04673 408.67 0.015625 392.272 0.015625C368.967 0.015625 346.082 14.5482 332.198 37.6243V2.71809H329.395L298.132 26.0434H296.762V153.129V155.637H332.23L332.144 153.145V46.8921C332.884 45.6694 333.538 44.47 334.215 43.2161C336.434 39.104 338.949 34.4468 346.199 26.2303C355.916 15.1635 372.089 6.14485 382.258 6.14485C404.543 6.14485 407.876 30.5683 407.876 45.1242Z" fill="#FAF9F5"></path><path d="M521.816 158.34C543.494 158.34 559.838 153.994 570.366 145.435C581.15 136.821 586.624 125.303 586.624 111.167C586.624 98.457 582.061 88.3559 573.068 81.1441C564.502 74.1348 549.653 67.3747 528.91 61.0664C527.158 60.5368 525.344 60.0072 523.506 59.5088C512.846 56.3935 500.769 52.9278 492.726 45.8796L492.337 45.4824C488.685 41.822 486.271 39.3999 486.271 30.6461C486.271 24.5091 487.953 4.49374 509.56 4.49374C531.02 4.49374 546.858 11.6821 555.384 25.3113C560.474 33.2108 564.901 41.5179 568.622 50.1475L569.143 51.3391H573.037V0H568.489V1.99377C568.559 3.07661 568.34 4.15855 567.854 5.12881C567.368 6.09907 566.634 6.92277 565.725 7.51552C560.539 10.9501 548.758 9.4314 540.808 6.05915C529.198 1.05141 517.448 0 509.56 0C497.032 0 485.913 3.83954 476.522 11.4018C467.131 18.964 462.374 29.1664 462.374 41.7753C462.374 56.487 467.334 67.3202 477.542 74.8903C487.143 82.0086 496.79 86.2453 514.396 91.0505C531.807 95.8791 543.899 100.708 550.362 105.42C556.825 110.131 559.706 113.504 559.706 122.997C559.706 143.192 546.617 153.869 521.855 153.869C491.893 153.869 466.571 128.169 466.571 97.7249V95.7078H462.016V158.332H466.384V156.338C466.384 152.319 467.536 149.633 469.911 148.137C475.432 144.656 486.738 147.896 494.758 151.735C504.312 156.307 512.667 158.34 521.816 158.34Z" fill="#FAF9F5"></path><path d="M726.813 19.5717C714.354 7.93634 698.781 2.25883 680.561 2.39902C662.34 2.5392 646.899 8.45036 634.425 20.3116C622.107 32.1339 615.94 46.8768 616.072 64.7037C616.205 82.5306 622.605 97.1411 635.103 108.777C647.756 120.412 663.282 126.089 681.511 125.91C699.739 125.731 715.172 119.859 727.498 108.037C739.957 96.2065 746.132 81.4637 745.999 63.6445C745.867 45.8254 739.458 31.2071 726.813 19.5717ZM681.503 125.49C649.485 125.739 644.766 90.4433 644.571 64.4311C644.392 40.9734 647.772 3.0688 680.561 2.81958C712.431 2.57815 717.306 37.9906 717.5 63.8704C717.679 87.1801 714.136 125.225 681.503 125.474V125.49Z" fill="#FAF9F5"></path></g><defs><clipPath id="clip0_106_876"><rect width="746" height="107" fill="white"></rect></clipPath></defs></svg>

<svg xmlns="http://www.w3.org/2000/svg" width="746" height="107" fill="none"><g opacity=".15" clip-path="url(#a)" fill="#FAF9F5"><path d="M111.083 81.167c-8.565-7.009-23.414-13.769-44.157-20.077-1.76-.53-3.567-1.06-5.404-1.558-10.66-3.115-22.737-6.58-30.78-13.629l-.398-.397c-3.652-3.66-6.058-6.083-6.058-14.837 0-6.137 1.674-26.152 23.29-26.152 21.46 0 37.298 7.189 45.824 20.818a170.39 170.39 0 0 1 13.237 24.836l.514 1.191h3.893V0h-4.555v1.994a6.131 6.131 0 0 1-2.756 5.522C98.547 10.95 86.758 9.43 78.816 6.059 67.206 1.051 55.456 0 47.568 0 35.04 0 23.92 3.84 14.53 11.402 5.14 18.964.382 29.166.382 41.775c0 14.712 4.96 25.545 15.168 33.115 9.6 7.119 19.248 11.355 36.846 16.16 17.41 4.83 29.503 9.658 35.974 14.37 6.47 4.711 9.305 8.084 9.305 17.577 0 20.195-13.09 30.872-37.85 30.872-29.963 0-55.285-25.7-55.285-56.144v-2.017H.023v62.624h4.36v-1.994c0-4.019 1.161-6.705 3.536-8.201 5.513-3.481 16.827-.241 24.84 3.598 9.592 4.564 17.908 6.597 27.089 6.597 21.685 0 38.03-4.346 48.549-12.905 10.761-8.606 16.212-20.124 16.212-34.236.038-12.71-4.532-22.812-13.526-30.024ZM279.149 103.208c-2.959 27.78-25.05 39.649-44.742 41.495-23.134 2.165-50.433-8.505-57.846-33.076-2.539-8.567-4.01-19.073-4.493-32.157L283.291 44.64l-1.51-4.626-.109.04c-2.656-6.527-7.094-13-13.829-20.195C256.264 7.399 237.475.016 217.565.016c-24.232 0-46.112 8.45-61.615 23.8-15.036 14.883-23.313 35.249-23.313 57.36 0 20.98 8.16 40.318 22.978 54.446 15.573 14.859 36.815 22.718 61.381 22.718 17.91 0 33.74-5.125 45.692-14.798 12.116-9.821 19.389-23.613 21.024-39.89l.218-2.197h-4.602l-.179 1.753ZM171.928 74.392c0-1.73-.055-3.302-.055-4.837l.234-1.106V68.2c.374-7.212 2.126-25.7 10.192-41.479 7.53-14.735 18.042-22.204 31.248-22.204 29.706 0 34.152 24.322 34.385 46.121l-76.004 23.754ZM407.876 45.124v110.513h35.359v-.498h.039V51.191c0-14.96-4.228-27.15-12.576-36.23C421.596 5.047 408.67.016 392.272.016c-23.305 0-46.19 14.532-60.074 37.608V2.718h-2.803l-31.263 23.325h-1.37v129.594h35.468l-.086-2.492V46.892c.74-1.223 1.394-2.422 2.071-3.676 2.219-4.112 4.734-8.77 11.984-16.986 9.717-11.066 25.89-20.085 36.059-20.085 22.285 0 25.618 24.423 25.618 38.98ZM521.816 158.34c21.678 0 38.022-4.346 48.55-12.905 10.784-8.614 16.258-20.132 16.258-34.268 0-12.71-4.563-22.811-13.556-30.023-8.566-7.01-23.415-13.77-44.158-20.078-1.752-.53-3.566-1.059-5.404-1.557-10.66-3.115-22.737-6.581-30.78-13.63l-.389-.397c-3.652-3.66-6.066-6.082-6.066-14.836 0-6.137 1.682-26.152 23.289-26.152 21.46 0 37.298 7.188 45.824 20.817 5.09 7.9 9.517 16.207 13.238 24.837l.521 1.191h3.894V0h-4.548v1.994a6.118 6.118 0 0 1-2.764 5.522c-5.186 3.434-16.967 1.915-24.917-1.457C529.198 1.051 517.448 0 509.56 0c-12.528 0-23.647 3.84-33.038 11.402-9.391 7.562-14.148 17.764-14.148 30.373 0 14.712 4.96 25.545 15.168 33.115 9.601 7.119 19.248 11.355 36.854 16.16 17.411 4.83 29.503 9.658 35.966 14.37 6.463 4.711 9.344 8.084 9.344 17.577 0 20.195-13.089 30.872-37.851 30.872-29.962 0-55.284-25.7-55.284-56.144v-2.017h-4.555v62.624h4.368v-1.994c0-4.019 1.152-6.705 3.527-8.201 5.521-3.481 16.827-.241 24.847 3.598 9.554 4.572 17.909 6.605 27.058 6.605ZM726.813 19.572C714.354 7.936 698.781 2.259 680.561 2.399c-18.221.14-33.662 6.051-46.136 17.913-12.318 11.822-18.485 26.565-18.353 44.392.133 17.827 6.533 32.437 19.031 44.073 12.653 11.635 28.179 17.312 46.408 17.133 18.228-.179 33.661-6.051 45.987-17.873 12.459-11.83 18.634-26.573 18.501-44.393-.132-17.819-6.541-32.437-19.186-44.072Zm-45.31 105.918c-32.018.249-36.737-35.047-36.932-61.059-.179-23.458 3.201-61.362 35.99-61.611 31.87-.242 36.745 35.17 36.939 61.05.179 23.31-3.364 61.355-35.997 61.604v.016Z"/></g><defs><clipPath id="a"><path fill="#fff" d="M0 0h746v107H0z"/></clipPath></defs></svg>
